Assets/SettingsPanel/Import.svg

<?xml version="1.0" encoding="UTF-8"?>
<svg xmlns="http://www.w3.org/2000/svg" xmlns:xlink="http://www.w3.org/1999/xlink" width="32px" height="32px" viewBox="0 0 32 32" version="1.1">
<g id="surface1">
<path style=" stroke:none;fill-rule:nonzero;fill:rgb(0%,0%,0%);fill-opacity:1;" d="M 5.824219 2.398438 C 6.464844 2.398438 7.105469 2.367188 7.742188 2.335938 C 8.160156 2.335938 8.574219 2.335938 8.992188 2.304688 C 9.535156 2.304688 9.535156 2.304688 10.113281 2.273438 C 11.328125 2.558594 11.457031 2.753906 12.222656 3.648438 C 13.152344 4.671875 13.761719 4.929688 15.136719 5.023438 C 15.777344 5.023438 16.449219 5.023438 17.089844 5.023438 C 17.441406 5.023438 17.792969 5.023438 18.144531 5.023438 C 19.265625 5.023438 20.351562 5.023438 21.472656 4.992188 C 22.59375 4.992188 23.679688 4.992188 24.800781 4.992188 C 25.472656 4.992188 26.175781 4.992188 26.847656 4.992188 C 28.574219 4.992188 29.886719 5.023438 31.359375 6.046875 C 32.0625 7.105469 32.097656 7.488281 32.097656 8.734375 C 32.097656 9.089844 32.097656 9.441406 32.097656 9.792969 C 32.097656 10.175781 32.097656 10.558594 32.097656 10.945312 C 32.097656 11.328125 32.097656 11.742188 32.097656 12.128906 C 32.097656 12.960938 32.097656 13.792969 32.097656 14.625 C 32.097656 15.902344 32.128906 17.152344 32.128906 18.433594 C 32.128906 19.230469 32.128906 20.03125 32.128906 20.863281 C 32.128906 21.246094 32.128906 21.632812 32.160156 22.015625 C 32.160156 24.640625 32.160156 24.640625 31.199219 25.953125 C 29.886719 26.816406 28.960938 26.878906 27.425781 26.847656 C 27.070312 26.847656 26.71875 26.847656 26.367188 26.847656 C 25.984375 26.847656 25.984375 26.847656 25.566406 26.847656 C 25.472656 26.304688 25.34375 25.792969 25.246094 25.246094 C 25.503906 25.246094 25.792969 25.214844 26.046875 25.214844 C 26.558594 25.183594 26.558594 25.183594 27.105469 25.152344 C 27.457031 25.121094 27.808594 25.121094 28.160156 25.089844 C 29.152344 25.023438 29.152344 25.023438 30.046875 24.320312 C 30.207031 23.585938 30.207031 23.585938 30.175781 22.71875 C 30.175781 22.207031 30.175781 22.207031 30.175781 21.726562 C 30.175781 21.375 30.175781 21.023438 30.175781 20.640625 C 30.175781 20.289062 30.175781 19.902344 30.175781 19.519531 C 30.175781 18.753906 30.175781 17.953125 30.175781 17.183594 C 30.175781 16 30.175781 14.785156 30.175781 13.601562 C 30.175781 12.832031 30.175781 12.097656 30.175781 11.328125 C 30.175781 10.976562 30.175781 10.625 30.175781 10.238281 C 30.175781 9.921875 30.175781 9.566406 30.175781 9.246094 C 30.175781 8.800781 30.175781 8.800781 30.175781 8.351562 C 30.144531 8.128906 30.078125 7.871094 30.046875 7.648438 C 28.992188 6.945312 28.734375 6.945312 27.519531 6.945312 C 27.199219 6.945312 26.878906 6.945312 26.558594 6.945312 C 26.046875 6.945312 26.046875 6.945312 25.503906 6.945312 C 24.769531 6.945312 24.03125 6.945312 23.328125 6.945312 C 22.175781 6.945312 21.023438 6.945312 19.871094 6.945312 C 18.753906 6.945312 17.664062 6.945312 16.542969 6.945312 C 16.03125 6.945312 16.03125 6.945312 15.519531 6.976562 C 13.121094 6.945312 13.121094 6.945312 12.128906 6.175781 C 11.742188 5.761719 11.390625 5.375 11.039062 4.960938 C 10.558594 4.351562 10.558594 4.351562 9.566406 4.191406 C 9.089844 4.191406 9.089844 4.191406 8.609375 4.222656 C 8.257812 4.222656 7.902344 4.222656 7.550781 4.222656 C 7.199219 4.222656 6.847656 4.257812 6.464844 4.289062 C 6.113281 4.289062 5.726562 4.289062 5.34375 4.289062 C 3.457031 4.222656 3.457031 4.222656 1.921875 5.121094 C 1.824219 5.953125 1.824219 5.953125 1.824219 6.945312 C 1.824219 7.328125 1.824219 7.710938 1.824219 8.097656 C 1.824219 8.511719 1.824219 8.929688 1.824219 9.34375 C 1.824219 9.761719 1.824219 10.207031 1.824219 10.625 C 1.824219 11.519531 1.824219 12.414062 1.824219 13.3125 C 1.824219 14.464844 1.824219 15.617188 1.824219 16.769531 C 1.824219 17.664062 1.824219 18.527344 1.824219 19.425781 C 1.824219 20.0625 1.824219 20.671875 1.824219 21.3125 C 1.824219 21.695312 1.824219 22.078125 1.824219 22.464844 C 1.824219 22.816406 1.824219 23.136719 1.824219 23.488281 C 1.824219 23.777344 1.886719 24.03125 1.921875 24.320312 C 3.007812 25.054688 3.585938 25.089844 4.863281 25.152344 C 5.214844 25.183594 5.566406 25.183594 5.921875 25.214844 C 6.175781 25.214844 6.464844 25.246094 6.71875 25.246094 C 6.625 25.792969 6.496094 26.304688 6.398438 26.847656 C 2.238281 27.070312 2.238281 27.070312 0.640625 25.921875 C -0.0976562 24.800781 -0.0976562 24.320312 -0.0976562 23.007812 C -0.0976562 22.398438 -0.0976562 22.398438 -0.0976562 21.792969 C -0.0976562 21.34375 -0.0976562 20.894531 -0.0976562 20.480469 C -0.0976562 20.03125 -0.0976562 19.585938 -0.0976562 19.105469 C -0.0976562 18.144531 -0.0976562 17.214844 -0.0976562 16.257812 C -0.0976562 15.039062 -0.0976562 13.824219 -0.128906 12.609375 C -0.128906 11.679688 -0.128906 10.71875 -0.128906 9.792969 C -0.128906 9.34375 -0.128906 8.894531 -0.128906 8.449219 C -0.128906 7.808594 -0.128906 7.199219 -0.128906 6.558594 C -0.128906 6.207031 -0.128906 5.855469 -0.128906 5.472656 C 0.0625 4.289062 0.480469 3.742188 1.3125 2.910156 C 2.625 2.207031 4.320312 2.433594 5.824219 2.398438 Z M 5.824219 2.398438 "/>
<path style=" stroke:none;fill-rule:nonzero;fill:rgb(0%,0%,0%);fill-opacity:1;" d="M 15.550781 25.441406 C 14.558594 24.960938 13.921875 24.382812 13.121094 23.648438 C 12.863281 23.390625 12.609375 23.167969 12.351562 22.910156 C 11.808594 22.144531 11.808594 22.144531 11.871094 21.246094 C 11.96875 21.023438 12.03125 20.769531 12.128906 20.542969 C 13.472656 20.734375 13.601562 21.054688 14.6875 22.144531 C 14.785156 19.390625 14.910156 16.640625 15.007812 13.824219 C 15.425781 13.601562 15.839844 13.40625 16.289062 13.183594 C 17.152344 14.046875 17.023438 14.496094 17.054688 15.710938 C 17.054688 16.097656 17.089844 16.449219 17.089844 16.832031 C 17.089844 17.214844 17.121094 17.601562 17.121094 18.015625 C 17.121094 18.398438 17.152344 18.816406 17.152344 19.199219 C 17.183594 20.160156 17.214844 21.152344 17.246094 22.113281 C 17.503906 21.855469 17.761719 21.566406 18.015625 21.3125 C 18.433594 20.929688 18.433594 20.929688 18.847656 20.511719 C 19.585938 20.574219 19.585938 20.574219 20.128906 20.832031 C 19.96875 22.304688 19.457031 22.945312 18.398438 23.96875 C 18.144531 24.222656 17.886719 24.480469 17.632812 24.734375 C 16.480469 25.726562 16.480469 25.726562 15.550781 25.441406 Z M 15.550781 25.441406 "/>
<path style=" stroke:none;fill-rule:nonzero;fill:rgb(0%,0%,0%);fill-opacity:1;" d="M 9.28125 24 C 10.078125 24.160156 10.078125 24.160156 10.878906 24.320312 C 10.976562 25.375 11.105469 26.433594 11.199219 27.519531 C 14.367188 27.519531 17.535156 27.519531 20.800781 27.519531 C 20.894531 26.464844 21.023438 25.40625 21.121094 24.320312 C 21.664062 24.222656 22.175781 24.097656 22.71875 24 C 22.753906 24.734375 22.753906 25.441406 22.785156 26.175781 C 22.816406 26.785156 22.816406 26.785156 22.816406 27.390625 C 22.71875 28.480469 22.71875 28.480469 22.398438 29.023438 C 21.40625 29.695312 20.351562 29.566406 19.199219 29.566406 C 18.816406 29.566406 18.816406 29.566406 18.433594 29.566406 C 17.886719 29.566406 17.375 29.566406 16.832031 29.566406 C 16.03125 29.566406 15.199219 29.566406 14.398438 29.566406 C 13.886719 29.566406 13.375 29.566406 12.832031 29.566406 C 12.480469 29.566406 12.480469 29.566406 12.097656 29.566406 C 10.433594 29.535156 10.433594 29.535156 9.632812 29.023438 C 9.089844 28.128906 9.214844 27.230469 9.246094 26.175781 C 9.246094 25.761719 9.28125 25.375 9.28125 24.929688 C 9.246094 24.640625 9.28125 24.320312 9.28125 24 Z M 9.28125 24 "/>
</g>
</svg>

<svg xmlns="http://www.w3.org/2000/svg" width="32" height="32" viewBox="0 0 32 32"><path d="M5.824 2.398c.64 0 1.281-.03 1.918-.062.418 0 .832 0 1.25-.031.543 0 .543 0 1.121-.032 1.215.286 1.344.48 2.11 1.375.93 1.024 1.539 1.282 2.914 1.375h3.008c1.12 0 2.207 0 3.328-.03h5.375c1.726 0 3.039.03 4.511 1.054.703 1.058.739 1.441.739 2.687v5.891c0 1.277.03 2.527.03 3.809v2.43c0 .382 0 .769.032 1.152 0 2.625 0 2.625-.96 3.937-1.313.863-2.24.926-3.774.895h-1.859c-.094-.543-.223-1.055-.32-1.602.257 0 .546-.031.8-.031l1.058-.063c.352-.03.704-.03 1.055-.062.992-.067.992-.067 1.887-.77.16-.734.16-.734.129-1.601V8.352c-.031-.223-.098-.48-.13-.704-1.054-.703-1.312-.703-2.526-.703H16.543c-.512 0-.512 0-1.023.032-2.399-.032-2.399-.032-3.391-.801a34 34 0 0 1-1.09-1.215c-.48-.61-.48-.61-1.473-.77-.476 0-.476 0-.957.032H7.551c-.352 0-.703.035-1.086.066H5.344c-1.887-.066-1.887-.066-3.422.832-.098.832-.098.832-.098 1.824v16.543c0 .29.063.543.098.832 1.086.735 1.664.77 2.941.832.352.032.703.032 1.059.063.254 0 .543.031.797.031-.094.547-.223 1.059-.32 1.602-4.16.222-4.16.222-5.758-.926-.739-1.121-.739-1.602-.739-2.914v-6.75c0-1.219 0-2.434-.03-3.649V5.473c.19-1.184.608-1.73 1.44-2.563 1.313-.703 3.008-.476 4.512-.512m0 0"/><path d="M15.55 25.441c-.991-.48-1.628-1.058-2.429-1.793-.258-.257-.512-.48-.77-.738-.542-.765-.542-.765-.48-1.664.098-.223.16-.476.258-.703 1.344.191 1.473.512 2.559 1.602.097-2.754.222-5.504.32-8.32.418-.223.832-.419 1.281-.641.863.863.734 1.312.766 2.527 0 .387.035.738.035 1.121s.031.77.031 1.184c0 .382.031.8.031 1.183l.094 2.914c.258-.258.516-.547.77-.8.418-.383.418-.383.832-.801.738.062.738.062 1.28.32-.16 1.473-.671 2.113-1.73 3.137l-.765.765c-1.153.993-1.153.993-2.082.707m0 0"/><path d="m9.281 24 1.598.32c.098 1.055.226 2.114.32 3.2h9.602c.094-1.055.222-2.114.32-3.2.543-.097 1.055-.222 1.598-.32.035.734.035 1.441.066 2.176.031.61.031.61.031 1.215-.097 1.09-.097 1.09-.418 1.632-.992.672-2.046.543-3.199.543h-7.101c-1.664-.03-1.664-.03-2.465-.543-.543-.894-.418-1.793-.387-2.847 0-.414.035-.801.035-1.246-.035-.29 0-.61 0-.93m0 0"/></svg>
